svg/300/sharp/request_page-fill.svg

<svg xmlns="http://www.w3.org/2000/svg" width="48" height="48" viewBox="0 -960 960 960"><path d="M457.308-250.001h45.384v-40h87.307v-172.691H415.384v-81.924h174.615v-45.383h-87.307v-40h-45.384v40h-87.307v172.691h174.615v81.924H370.001v45.383h87.307v40Zm-277.307 150v-759.998h372.152l227.846 227.846v532.152H180.001Z"/></svg>

<svg xmlns="http://www.w3.org/2000/svg" width="48" height="48" viewBox="0 -960 960 960"><path d="M457.31-250h45.38v-40H590v-172.69H415.38v-81.93H590V-590h-87.31v-40h-45.38v40H370v172.69h174.62v81.93H370V-290h87.31v40ZM180-100v-760h372.15L780-632.15V-100H180Z"/></svg>
